X:5
T:Bätruef-Juiz  Bb
T:Anni Wallimann  (23.8.1928-31.2.2014)
T:Dirigenten-Notiz, Edi Gasser
C:Unterwalden (CH)
%%partsbox
M:3/4
R:Naturjodel
L:1/8
K:Bb
[P:A] B>F DB Fd | B>d f>d Bf | c>E Ff cd | B>c dBF2 | 
B>F DB Fd | B>d f>d Bf | c>E Ff cd | B4z2 || 
M:4/4
[P:B]  F2 =EC D2 B,B, | F2 =EC D2 !fermata!B,2 | [M:3/4 ] B,>F DB Fd | B3F Bd 
w:Lo-ba zue lo-bä, i Gotts Na-mä  lo-bä!
f3d cd | B6 | [M:4/4] F2 =EC D2 B,B, | F2 =EC D2 !fermata!B,2 | 
B,>F DB Fd | B3F Bd | f3d cd | B6 || 
M:3/4
[P:C] FF | f3gf2 | e3dc2 | B2 BF FB | DF FD FB | A2 AF FA | 
EF FE Fc | B3d GD | F4FF | f3gf2 | e3dc2 | B2BF FB | DF FD FB | 
A2AF FA | EF FE Fc | (B6 | B4)F2 | f2d2B2 | c4F2 | d4 (3cFd | !fermata!B6 |] 
W:
%W:Reihenfolge:
W: notiert Edi Gasser. Angaben: Anni Wallimann
W:
W:UJV-Naturjodelsammlung: Code-Nr: 06-03
W:http://www.naturjodler.ch/code 06.htm  (with AUDIO)
%May 1, 2018

